front/public/static/landing/logos/gray/watershed.svg

<svg fill="none" height="300" viewBox="0 0 600 300" width="600" xmlns="http://www.w3.org/2000/svg" xmlns:xlink="http://www.w3.org/1999/xlink"><mask id="a" height="108" maskUnits="userSpaceOnUse" width="108" x="34" y="96"><path d="m34 96h107.911v108h-107.911z" fill="#fff"/></mask><g fill="#364153"><path d="m248.369 178.181c-8.345 0-14.865-4.723-14.865-13.652 0-9.769 7.824-13.522 16.364-13.522h6.977c4.303 0 6.259-1.682 6.259-4.658 0-3.882-3.586-5.758-8.215-5.758-5.542 0-9.063 2.652-9.389 7.375h-10.301c.652-9.187 6.65-15.139 19.559-15.139 12.91 0 18.191 6.211 18.191 14.816v18.309c0 2.071.782 2.847 2.869 2.847h1.63v8.023h-6.716c-4.694 0-7.302-2.329-7.302-6.341v-1.617h-.13c-2.739 6.341-8.28 9.317-14.931 9.317zm3.065-7.894c5.867 0 11.67-3.623 11.67-12.487v-3.946h-.13c-1.304 2.653-3.847 3.946-8.281 4.141l-3.195.129c-5.15.129-7.367 2.717-7.367 6.082 0 3.364 2.217 6.146 7.367 6.146z"/><path d="m284.163 165.305v-23.097h-8.28v-8.023h8.28v-11.645h9.91v11.645h12.975v8.023h-12.975v21.674c0 3.623 1.891 5.047 5.151 5.047h8.02v8.022h-11.41c-7.694 0-11.736-3.817-11.736-11.581z"/><path d="m309.652 155.536c0-14.169 8.867-22.645 21.255-22.645s20.668 7.311 20.668 21.027v4.4h-31.426c.326 7.311 4.434 12.098 11.019 12.098 4.759 0 8.345-2.588 9.715-6.664h10.17c-1.89 8.541-9.388 14.428-20.016 14.428-12.713 0-21.32-8.54-21.32-22.644zm32.013-4.271c0-6.211-3.782-10.61-10.497-10.61-6.716 0-10.302 4.658-10.954 10.61z"/><path d="m358.355 134.184h9.715v6.729h.13c2.021-4.27 4.76-6.729 10.497-6.729h4.173v8.023h-5.933c-5.933 0-8.671 3.17-8.671 10.158v24.521h-9.846v-42.702z"/><path d="m385.218 162.717h10.171c.26 5.37 3.651 7.699 8.736 7.699 5.086 0 8.216-2.458 8.216-6.275 0-3.365-2.087-5.37-7.433-5.37h-4.694c-8.998 0-14.214-4.917-14.214-12.099 0-8.152 6.65-13.781 17.929-13.781 11.28 0 17.93 6.082 18.191 15.14h-10.106c-.26-4.788-2.869-7.376-8.149-7.376-4.695 0-7.564 2.2-7.564 5.693 0 3.171 2.413 4.723 6.39 4.723h5.151c10.301 0 14.995 5.758 14.995 12.746 0 8.476-6.715 14.428-18.712 14.428-11.996 0-18.712-6.082-18.973-15.463z"/><path d="m429.688 122.668h9.843v10.999c0 1.941 0 3.429-.13 7.052h.13c2.282-4.658 6.716-7.828 12.91-7.828 8.801 0 14.865 6.082 14.865 16.433v27.562h-9.845v-25.621c0-7.634-3.26-10.546-8.15-10.546s-9.78 3.171-9.78 11.711v24.456h-9.843z"/><path d="m474.02 155.536c0-14.169 8.802-22.645 21.255-22.645s20.668 7.311 20.668 21.027v4.4h-31.426c.326 7.311 4.434 12.098 11.018 12.098 4.76 0 8.346-2.588 9.715-6.664h10.171c-1.891 8.541-9.389 14.428-20.016 14.428-12.779 0-21.32-8.54-21.32-22.644zm32.012-4.271c0-6.211-3.781-10.61-10.497-10.61-6.715 0-10.301 4.658-10.953 10.61z"/><path d="m520.832 155.536c0-14.817 9.128-22.645 19.169-22.645 6.584 0 11.8 3.364 14.408 8.799h.131c-.131-1.488-.131-2.782-.131-4.335v-14.687h9.845v54.218h-9.779v-2.847c0-1.553 0-2.976.065-4.594h-.131c-2.608 5.436-7.824 8.8-14.408 8.8-10.041 0-19.169-7.829-19.169-22.645zm22.102 14.88c7.172 0 11.475-5.887 11.475-14.88 0-8.994-4.303-14.881-11.475-14.881s-11.54 5.887-11.54 14.881c0 8.993 4.303 14.88 11.54 14.88z"/><path clip-rule="evenodd" d="m197.495 156.546 9.083 19.952h8.084l24.645-54.282h-11.344l-17.278 40.436h-.195l-17.147-40.436h-11.476l10.755 23.625-8.147 19.011h-.13l-17.212-42.636h-11.41l24.71 54.282h8.02z" fill-rule="evenodd"/></g><g mask="url(#a)"><path clip-rule="evenodd" d="m43.5736 145.791c-.1296 1.385-.1958 2.789-.1958 4.209 0 17.683 10.2814 32.965 25.1894 40.182-.6142-1.035-1.1932-2.105-1.7363-3.198-4.8087-9.682-7.6483-22.729-7.6483-36.884 0-4.466.2827-8.823.8209-12.998-4.0501-.125-6.7664.687-8.717 1.699-2.5722 1.335-4.1555 3.086-6.0638 5.196-.5171.572-1.0581 1.17-1.6491 1.794zm4.5766-15.895c3.6631-1.645 8.0668-2.477 13.5436-2.106 1.28-5.383 3.0172-10.305 5.1371-14.574.5923-1.192 1.2274-2.356 1.9042-3.48-8.8873 4.257-16.1456 11.374-20.5849 20.16zm35.1164-22.632c-2.7039 1.772-5.5038 5.029-8.0386 10.132-1.7018 3.427-3.1538 7.463-4.2641 11.961 5.0421 1.363 9.0237 3.615 12.3026 6.315zm-.0001 42.24c-3.642-5.026-7.6233-8.943-14.0044-10.871-.4561 3.648-.7017 7.489-.7017 11.467 0 13.021 2.6312 24.577 6.6676 32.704 2.5347 5.103 5.3346 8.36 8.0385 10.132zm9.3776 43.865v-30.086c3.131 3.988 6.9926 7.751 12.2809 10.29-.99 3.412-2.183 6.513-3.533 9.231-2.7567 5.552-5.8278 8.917-8.7479 10.565zm14.3689-29.33c-5.036-3.105-8.2331-8.044-12.1287-14.063-.3091-.477-.6221-.961-.941-1.451-.423-.651-.8551-1.309-1.2992-1.97l.0005-39.724c2.9196 1.648 5.9907 5.014 8.7474 10.565 4.037 8.127 6.668 19.683 6.668 32.704 0 4.887-.37 9.569-1.047 13.939zm8.943 3.391c.966-5.458 1.482-11.293 1.482-17.33 0-14.155-2.839-27.202-7.649-36.884-.505-1.017-1.041-2.014-1.608-2.982 14.454 7.377 24.352 22.415 24.352 39.766 0 3.503-.403 6.911-1.166 10.182-.126-.032-.126-.034-.126-.034l.002-.005.002-.009.004-.015.003-.012s-.004.014-.013.043c-.016.056-.049.166-.102.318-.107.309-.289.778-.567 1.335-.563 1.131-1.46 2.5-2.807 3.64-1.864 1.578-5.333 3.347-11.807 1.987zm-2.135 9.136c-1.116 3.776-2.47 7.274-4.032 10.418-.455.918-.936 1.819-1.443 2.697 5.889-3.036 11.014-7.347 15.012-12.568-2.809.352-5.979.219-9.537-.547zm-25.0423 27.428c29.4173-.441 53.1323-24.445 53.1323-53.994 0-29.825-24.158-54-53.9556-54-29.7974 0-53.9554 24.175-53.9554 54s24.158 54 53.9554 54c.0744 0 .1484 0 .2228-.001.0443.001.088.001.1322.001.1565 0 .3124-.002.4683-.006z" fill="#364153" fill-rule="evenodd"/></g></svg>

<svg width="600" height="300" viewBox="0 0 600 300" fill="none" xmlns="http://www.w3.org/2000/svg">
<path d="M248.369 178.181C240.024 178.181 233.504 173.458 233.504 164.529C233.504 154.76 241.328 151.007 249.868 151.007H256.845C261.148 151.007 263.104 149.325 263.104 146.349C263.104 142.467 259.518 140.591 254.889 140.591C249.347 140.591 245.826 143.243 245.5 147.966H235.199C235.851 138.779 241.849 132.827 254.758 132.827C267.668 132.827 272.949 139.038 272.949 147.643V165.952C272.949 168.023 273.731 168.799 275.818 168.799H277.448V176.822H270.732C266.038 176.822 263.43 174.493 263.43 170.481V168.864H263.3C260.561 175.205 255.02 178.181 248.369 178.181ZM251.434 170.287C257.301 170.287 263.104 166.664 263.104 157.8V153.854H262.974C261.67 156.507 259.127 157.8 254.693 157.995L251.498 158.124C246.348 158.253 244.131 160.841 244.131 164.206C244.131 167.57 246.348 170.352 251.498 170.352L251.434 170.287Z" fill="#364153"/>
<path d="M284.163 165.305V142.208H275.883V134.185H284.163V122.54H294.073V134.185H307.048V142.208H294.073V163.882C294.073 167.505 295.964 168.929 299.224 168.929H307.244V176.951H295.834C288.14 176.951 284.098 173.134 284.098 165.37L284.163 165.305Z" fill="#364153"/>
<path d="M309.652 155.536C309.652 141.367 318.519 132.891 330.907 132.891C343.295 132.891 351.575 140.202 351.575 153.918V158.318H320.149C320.475 165.629 324.583 170.416 331.168 170.416C335.927 170.416 339.513 167.828 340.883 163.752H351.053C349.163 172.293 341.665 178.18 331.037 178.18C318.324 178.18 309.717 169.64 309.717 155.536H309.652ZM341.665 151.265C341.665 145.054 337.883 140.655 331.168 140.655C324.452 140.655 320.866 145.313 320.214 151.265H341.665Z" fill="#364153"/>
<path d="M358.355 134.184H368.07V140.913H368.2C370.221 136.643 372.96 134.184 378.697 134.184H382.87V142.207H376.937C371.004 142.207 368.266 145.377 368.266 152.365V176.886H358.42V134.184H358.355Z" fill="#364153"/>
<path d="M385.218 162.717H395.389C395.649 168.087 399.04 170.416 404.125 170.416C409.211 170.416 412.341 167.958 412.341 164.141C412.341 160.776 410.254 158.771 404.908 158.771H400.214C391.216 158.771 386 153.854 386 146.672C386 138.52 392.65 132.891 403.929 132.891C415.209 132.891 421.859 138.973 422.12 148.031H412.014C411.754 143.243 409.145 140.655 403.865 140.655C399.17 140.655 396.301 142.855 396.301 146.348C396.301 149.519 398.714 151.071 402.691 151.071H407.842C418.143 151.071 422.837 156.829 422.837 163.817C422.837 172.293 416.122 178.245 404.125 178.245C392.129 178.245 385.413 172.163 385.152 162.782L385.218 162.717Z" fill="#364153"/>
<path d="M429.688 122.668H439.531V133.667C439.531 135.608 439.531 137.096 439.401 140.719H439.531C441.813 136.061 446.247 132.891 452.441 132.891C461.242 132.891 467.306 138.973 467.306 149.324V176.886H457.461V151.265C457.461 143.631 454.201 140.719 449.311 140.719C444.421 140.719 439.531 143.89 439.531 152.43V176.886H429.688V122.668Z" fill="#364153"/>
<path d="M474.02 155.536C474.02 141.367 482.822 132.891 495.275 132.891C507.728 132.891 515.943 140.202 515.943 153.918V158.318H484.517C484.843 165.629 488.951 170.416 495.535 170.416C500.295 170.416 503.881 167.828 505.25 163.752H515.421C513.53 172.293 506.032 178.18 495.405 178.18C482.626 178.18 474.085 169.64 474.085 155.536H474.02ZM506.032 151.265C506.032 145.054 502.251 140.655 495.535 140.655C488.82 140.655 485.234 145.313 484.582 151.265H506.032Z" fill="#364153"/>
<path d="M520.832 155.536C520.832 140.719 529.96 132.891 540.001 132.891C546.585 132.891 551.801 136.255 554.409 141.69H554.54C554.409 140.202 554.409 138.908 554.409 137.355V122.668H564.254V176.886H554.475V174.039C554.475 172.486 554.475 171.063 554.54 169.445H554.409C551.801 174.881 546.585 178.245 540.001 178.245C529.96 178.245 520.832 170.416 520.832 155.6V155.536ZM542.934 170.416C550.106 170.416 554.409 164.529 554.409 155.536C554.409 146.542 550.106 140.655 542.934 140.655C535.762 140.655 531.394 146.542 531.394 155.536C531.394 164.529 535.697 170.416 542.934 170.416Z" fill="#364153"/>
<path fill-rule="evenodd" clip-rule="evenodd" d="M197.495 156.546L206.578 176.498H214.662L239.307 122.216H227.963L210.685 162.652H210.49L193.343 122.216H181.867L192.622 145.841L184.475 164.852H184.345L167.133 122.216H155.723L180.433 176.498H188.453L197.495 156.546Z" fill="#364153"/>
<mask id="mask0_1904_3779" style="mask-type:luminance" maskUnits="userSpaceOnUse" x="34" y="96" width="108" height="108">
<path d="M34 96H141.911V204H34V96Z" fill="white"/>
</mask>
<g mask="url(#mask0_1904_3779)">
<path fill-rule="evenodd" clip-rule="evenodd" d="M43.5736 145.791C43.444 147.176 43.3778 148.58 43.3778 150C43.3778 167.683 53.6592 182.965 68.5672 190.182C67.953 189.147 67.374 188.077 66.8309 186.984C62.0222 177.302 59.1826 164.255 59.1826 150.1C59.1826 145.634 59.4653 141.277 60.0035 137.102C55.9534 136.977 53.2371 137.789 51.2865 138.801C48.7143 140.136 47.131 141.887 45.2227 143.997C44.7056 144.569 44.1646 145.167 43.5736 145.791ZM48.1502 129.896C51.8133 128.251 56.217 127.419 61.6938 127.79C62.9738 122.407 64.711 117.485 66.8309 113.216C67.4232 112.024 68.0583 110.86 68.7351 109.736C59.8478 113.993 52.5895 121.11 48.1502 129.896ZM83.2666 107.264C80.5627 109.036 77.7628 112.293 75.228 117.396C73.5262 120.823 72.0742 124.859 70.9639 129.357C76.006 130.72 79.9876 132.972 83.2665 135.672L83.2666 107.264ZM83.2665 149.504C79.6245 144.478 75.6432 140.561 69.2621 138.633C68.806 142.281 68.5604 146.122 68.5604 150.1C68.5604 163.121 71.1916 174.677 75.228 182.804C77.7627 187.907 80.5626 191.164 83.2665 192.936V149.504ZM92.6441 193.369V163.283C95.7751 167.271 99.6367 171.034 104.925 173.573C103.935 176.985 102.742 180.086 101.392 182.804C98.6353 188.356 95.5642 191.721 92.6441 193.369ZM107.013 164.039C101.977 160.934 98.7799 155.995 94.8843 149.976C94.5752 149.499 94.2622 149.015 93.9433 148.525C93.5203 147.874 93.0882 147.216 92.6441 146.555L92.6446 106.831C95.5642 108.479 98.6353 111.845 101.392 117.396C105.429 125.523 108.06 137.079 108.06 150.1C108.06 154.987 107.69 159.669 107.013 164.039ZM115.956 167.43C116.922 161.972 117.438 156.137 117.438 150.1C117.438 135.945 114.599 122.898 109.789 113.216C109.284 112.199 108.748 111.202 108.181 110.234C122.635 117.611 132.533 132.649 132.533 150C132.533 153.503 132.13 156.911 131.367 160.182C131.241 160.15 131.241 160.148 131.241 160.148L131.243 160.143L131.245 160.134L131.249 160.119L131.252 160.107C131.252 160.107 131.248 160.121 131.239 160.15C131.223 160.206 131.19 160.316 131.137 160.468C131.03 160.777 130.848 161.246 130.57 161.803C130.007 162.934 129.11 164.303 127.763 165.443C125.899 167.021 122.43 168.79 115.956 167.43ZM113.821 176.566C112.705 180.342 111.351 183.84 109.789 186.984C109.334 187.902 108.853 188.803 108.346 189.681C114.235 186.645 119.36 182.334 123.358 177.113C120.549 177.465 117.379 177.332 113.821 176.566ZM88.7787 203.994C118.196 203.553 141.911 179.549 141.911 150C141.911 120.175 117.753 96 87.9554 96C58.158 96 34 120.175 34 150C34 179.825 58.158 204 87.9554 204C88.0298 204 88.1038 204 88.1782 203.999C88.2225 204 88.2662 204 88.3104 204C88.4669 204 88.6228 203.998 88.7787 203.994Z" fill="#364153"/>
</g>
</svg>
